X:1
T:Dreher, aus Stumm
C:traditionell
R:dreher
A:Stumm, Tirol
%%textfont Helvetica-Narrow 10pt
%%begintext align
B:"Volksmusik aus dem Zillertal",Karl Horak, Innsbruck
N:dort auf seite 137 in C, quelle einstimmig, im buch zweite stimme und harmonie-buchstaben ergaenzt
S:mit der angabe: auf einem lithographierten noten-blatt, vom lehrer Johann Zangerle in Stumm gefunden und 1906 abschriftlich an Raimund Zoder uebergeben. 
%%endtext
F:http://simonwascher.info
Z:abc transcription Simon Wascher
N:noten-material von Stefan Straubinger
M:2/4
L:1/16
K:C
c2(cB) .c2.e2 | g2(ag) (fedc) | (Bcde) (fdcB) | (dcBc) G4 |
c2(cB) .c2.e2 | g2(ag) (fedc) | (Bcde) (fdcB) | c2e2c2 z2 :|
c2(Gc) e2(ce) | g2(ag) e2c2 | g2(ag) (fdBG) | ag^fg e2G2 |
c2(Gc) e2(ce) | g2(eg) c'2e2 | g2(ag) (fdBG) | c4 x2z2 :|
%%wordsfont Times-Italic 11pt
W:aus Simon Waschers TradArchiv
